X:99
T:Quadrill. JBs.099
S:Jas.Blackshaw MS, 1837, N.Shropshire
A:North Shropshire
Z:T. Weatherall 2006
M:2/4
L:1/8
Q:1/4=100
R:Set tune
K:C
G|c2eG|c2eG|Afed|d/c/B/c/ B/G/A/B/|!
c2 eG|c2eG|A/f/e/d/ c/B/A/B/|ce c:|!
|:g|d/^c/d/e/ dg|c2ec|d/c/B/A/ G/A/B/G/|c/d/e/f/ gg|!
d/^c/d/e/ dg|ce/d/ cd/e/|dd/c/ BB/A/|GB G:|

